;FLAVOR:RepRap
;TIME:5686
;Filament used: 4.15769m
;Layer height: 0.1
;Generated with Cura_SteamEngine 3.6.0
T0
M104 S200
M109 S200
M82 ;absolute extrusion mode
G28 ;Home
G1 Z15.0 F6000 ;Move the platform down 15mm
G92 E0
M83 ;relative extrusion mode
G1 F1500 E-6.5
;LAYER_COUNT:249
;LAYER:0
M107
G0 F3600 X30.31 Y30.792 Z0.3
;TYPE:SKIRT
G1 F1500 E6.5
G1 F1800 X31.861 Y29.322 E0.10661
G1 X32.501 Y28.778 E0.04191
G1 X34.2 Y27.484 E0.10655
G1 X34.901 Y27.008 E0.04227
G1 X36.727 Y25.908 E0.10635
G1 X37.467 Y25.515 E0.0418
G1 X39.403 Y24.616 E0.10649
G1 X40.2 Y24.298 E0.04281
G1 X42.223 Y23.617 E0.10649
G1 X43.028 Y23.393 E0.04169
G1 X45.114 Y22.932 E0.10658
G1 X45.946 Y22.795 E0.04207
G1 X48.069 Y22.562 E0.10655
G1 X48.913 Y22.515 E0.04217
G1 X51.045 Y22.513 E0.10637
G1 X51.889 Y22.558 E0.04217
G1 X54.012 Y22.787 E0.10653
G1 X54.847 Y22.923 E0.04221
G1 X56.934 Y23.381 E0.1066
G1 X57.743 Y23.605 E0.04188
G1 X59.767 Y24.284 E0.10651
G1 X60.56 Y24.6 E0.04259
G1 X62.495 Y25.495 E0.10636
G1 X63.234 Y25.886 E0.04171
G1 X65.064 Y26.984 E0.10647
G1 X65.769 Y27.461 E0.04247
G1 X67.47 Y28.753 E0.10657
G1 X68.11 Y29.296 E0.04187
G1 X69.663 Y30.764 E0.10662
G1 X70.247 Y31.379 E0.04231
G1 X71.628 Y33.003 E0.10636
G1 X72.139 Y33.675 E0.04212
G1 X73.338 Y35.441 E0.10649
G1 X73.776 Y36.167 E0.0423
G1 X74.777 Y38.054 E0.10657
G1 X75.129 Y38.814 E0.04179
G1 X75.922 Y40.798 E0.1066
G1 X76.193 Y41.601 E0.04228
G1 X76.765 Y43.656 E0.10642
G1 X76.948 Y44.483 E0.04226
G1 X77.294 Y46.588 E0.10643
G1 X77.385 Y47.426 E0.04205
G1 X77.502 Y49.558 E0.10653
G1 X77.503 Y50.394 E0.04171
G1 X77.391 Y52.526 E0.10651
G1 X77.3 Y53.373 E0.0425
G1 X76.956 Y55.481 E0.10656
G1 X76.774 Y56.309 E0.0423
G1 X76.204 Y58.365 E0.10644
G1 X75.937 Y59.161 E0.04189
G1 X75.149 Y61.144 E0.10646
G1 X74.794 Y61.912 E0.04221
G1 X73.795 Y63.8 E0.10657
G1 X73.359 Y64.526 E0.04225
G1 X72.161 Y66.295 E0.10659
G1 X71.652 Y66.966 E0.04202
G1 X70.273 Y68.592 E0.10637
G1 X69.69 Y69.208 E0.04231
G1 X68.139 Y70.678 E0.10661
G1 X67.499 Y71.222 E0.04191
G1 X65.8 Y72.516 E0.10655
G1 X65.099 Y72.992 E0.04227
G1 X63.273 Y74.092 E0.10635
G1 X62.533 Y74.485 E0.0418
G1 X60.597 Y75.384 E0.10649
G1 X59.8 Y75.702 E0.04281
G1 X57.777 Y76.383 E0.10649
G1 X56.972 Y76.607 E0.04169
G1 X54.886 Y77.068 E0.10658
G1 X54.054 Y77.205 E0.04207
G1 X51.931 Y77.438 E0.10655
G1 X51.087 Y77.485 E0.04217
G1 X48.955 Y77.487 E0.10637
G1 X48.111 Y77.442 E0.04217
G1 X45.988 Y77.213 E0.10653
G1 X45.153 Y77.077 E0.04221
G1 X43.066 Y76.619 E0.1066
G1 X42.257 Y76.395 E0.04188
G1 X40.233 Y75.716 E0.10651
G1 X39.439 Y75.4 E0.04263
G1 X37.502 Y74.504 E0.10648
G1 X36.763 Y74.113 E0.04171
G1 X34.935 Y73.016 E0.10636
G1 X34.231 Y72.539 E0.04243
G1 X32.53 Y71.247 E0.10657
G1 X31.89 Y70.704 E0.04187
G1 X30.337 Y69.236 E0.10662
G1 X29.753 Y68.621 E0.04231
G1 X28.372 Y66.997 E0.10636
G1 X27.86 Y66.324 E0.04219
G1 X26.66 Y64.556 E0.1066
G1 X26.223 Y63.831 E0.04223
G1 X25.222 Y61.944 E0.10657
G1 X24.87 Y61.183 E0.04183
G1 X24.078 Y59.201 E0.10648
G1 X23.807 Y58.399 E0.04223
G1 X23.235 Y56.344 E0.10642
G1 X23.052 Y55.516 E0.04231
G1 X22.706 Y53.409 E0.10653
G1 X22.615 Y52.573 E0.04195
G1 X22.498 Y50.443 E0.10643
G1 X22.497 Y49.606 E0.04176
G1 X22.609 Y47.474 E0.10651
G1 X22.7 Y46.627 E0.0425
G1 X23.044 Y44.519 E0.10656
G1 X23.226 Y43.691 E0.0423
G1 X23.796 Y41.635 E0.10644
G1 X24.063 Y40.839 E0.04189
G1 X24.851 Y38.856 E0.10646
G1 X25.206 Y38.088 E0.04221
G1 X26.205 Y36.2 E0.10657
G1 X26.641 Y35.474 E0.04225
G1 X27.839 Y33.705 E0.10659
G1 X28.348 Y33.034 E0.04202
G1 X29.727 Y31.408 E0.10637
G1 X30.31 Y30.792 E0.04231
G0 F3600 X30.586 Y31.082
G1 F1800 X32.137 Y29.612 E0.10661
G1 X32.743 Y29.096 E0.03971
G1 X34.442 Y27.802 E0.10655
G1 X35.108 Y27.35 E0.04016
G1 X36.934 Y26.25 E0.10635
G1 X37.635 Y25.877 E0.03962
G1 X39.571 Y24.978 E0.10649
G1 X40.327 Y24.677 E0.0406
G1 X42.35 Y23.996 E0.10649
G1 X43.114 Y23.783 E0.03957
G1 X45.2 Y23.322 E0.10658
G1 X45.99 Y23.192 E0.03994
G1 X48.113 Y22.959 E0.10655
G1 X48.913 Y22.915 E0.03997
G1 X51.045 Y22.913 E0.10637
G1 X51.846 Y22.956 E0.04002
G1 X53.969 Y23.185 E0.10653
G1 X54.761 Y23.314 E0.04003
G1 X56.848 Y23.772 E0.1066
G1 X57.616 Y23.984 E0.03975
G1 X59.64 Y24.663 E0.10651
G1 X60.393 Y24.963 E0.04044
G1 X62.328 Y25.858 E0.10636
G1 X63.028 Y26.229 E0.03952
G1 X64.858 Y27.327 E0.10647
G1 X65.527 Y27.779 E0.04028
G1 X67.228 Y29.071 E0.10657
G1 X67.835 Y29.586 E0.03971
G1 X69.388 Y31.054 E0.10662
G1 X69.942 Y31.638 E0.04016
G1 X71.323 Y33.262 E0.10636
G1 X71.808 Y33.899 E0.03994
G1 X73.007 Y35.665 E0.10649
G1 X73.422 Y36.354 E0.04013
G1 X74.423 Y38.241 E0.10657
G1 X74.757 Y38.963 E0.03969
G1 X75.55 Y40.947 E0.1066
G1 X75.808 Y41.709 E0.04014
G1 X76.38 Y43.764 E0.10642
G1 X76.553 Y44.548 E0.04005
G1 X76.899 Y46.653 E0.10643
G1 X76.986 Y47.448 E0.0399
G1 X77.103 Y49.58 E0.10653
G1 X77.104 Y50.373 E0.03956
G1 X76.992 Y52.505 E0.10651
G1 X76.905 Y53.309 E0.04035
G1 X76.561 Y55.417 E0.10656
G1 X76.389 Y56.202 E0.04009
G1 X75.819 Y58.258 E0.10644
G1 X75.565 Y59.014 E0.03979
G1 X74.777 Y60.997 E0.10646
G1 X74.441 Y61.725 E0.04
G1 X73.442 Y63.613 E0.10657
G1 X73.028 Y64.301 E0.04006
G1 X71.83 Y66.07 E0.10659
G1 X71.347 Y66.707 E0.03988
G1 X69.968 Y68.333 E0.10637
G1 X69.414 Y68.918 E0.0402
G1 X67.863 Y70.388 E0.10661
G1 X67.257 Y70.904 E0.03971
G1 X65.558 Y72.198 E0.10655
G1 X64.892 Y72.65 E0.04016
G1 X63.066 Y73.75 E0.10635
G1 X62.365 Y74.123 E0.03962
G1 X60.429 Y75.022 E0.10649
G1 X59.673 Y75.323 E0.0406
G1 X57.65 Y76.004 E0.10649
G1 X56.886 Y76.217 E0.03957
G1 X54.8 Y76.678 E0.10658
G1 X54.01 Y76.808 E0.03994
G1 X51.887 Y77.041 E0.10655
G1 X51.087 Y77.085 E0.03997
G1 X48.955 Y77.087 E0.10637
G1 X48.154 Y77.044 E0.04002
G1 X46.031 Y76.815 E0.10653
G1 X45.239 Y76.686 E0.04003
G1 X43.152 Y76.228 E0.1066
G1 X42.384 Y76.016 E0.03975
G1 X40.36 Y75.337 E0.10651
G1 X39.607 Y75.037 E0.04044
G1 X37.67 Y74.141 E0.10648
G1 X36.969 Y73.77 E0.03957
G1 X35.141 Y72.673 E0.10636
G1 X34.473 Y72.221 E0.04024
G1 X32.772 Y70.929 E0.10657
G1 X32.165 Y70.414 E0.03971
G1 X30.612 Y68.946 E0.10662
G1 X30.058 Y68.362 E0.04016
G1 X28.677 Y66.738 E0.10636
G1 X28.191 Y66.1 E0.04001
G1 X26.991 Y64.332 E0.1066
G1 X26.577 Y63.644 E0.04006
G1 X25.576 Y61.757 E0.10657
G1 X25.241 Y61.035 E0.03971
G1 X24.449 Y59.053 E0.10648
G1 X24.192 Y58.291 E0.04012
G1 X23.62 Y56.236 E0.10642
G1 X23.447 Y55.451 E0.0401
G1 X23.101 Y53.344 E0.10653
G1 X23.014 Y52.551 E0.0398
G1 X22.897 Y50.421 E0.10643
G1 X22.896 Y49.627 E0.03961
G1 X23.008 Y47.495 E0.10651
G1 X23.095 Y46.691 E0.04035
G1 X23.439 Y44.583 E0.10656
G1 X23.611 Y43.798 E0.04009
G1 X24.181 Y41.742 E0.10644
G1 X24.435 Y40.986 E0.03979
G1 X25.223 Y39.003 E0.10646
G1 X25.559 Y38.275 E0.04
G1 X26.558 Y36.387 E0.10657
G1 X26.972 Y35.699 E0.04006
G1 X28.17 Y33.93 E0.10659
G1 X28.653 Y33.293 E0.03988
G1 X30.032 Y31.667 E0.10637
G1 X30.586 Y31.082 E0.0402
G0 F3600 X30.861 Y31.372
G1 F1800 X32.412 Y29.902 E0.10661
G1 X32.986 Y29.414 E0.03759
G1 X34.685 Y28.12 E0.10655
G1 X35.314 Y27.693 E0.03793
G1 X37.14 Y26.593 E0.10635
G1 X37.804 Y26.24 E0.03752
G1 X39.74 Y25.341 E0.10649
G1 X40.455 Y25.056 E0.0384
G1 X42.478 Y24.375 E0.10649
G1 X43.2 Y24.174 E0.03739
G1 X45.286 Y23.713 E0.10658
G1 X46.033 Y23.59 E0.03777
G1 X48.156 Y23.357 E0.10655
G1 X48.913 Y23.315 E0.03782
G1 X51.045 Y23.313 E0.10637
G1 X51.803 Y23.353 E0.03787
G1 X53.926 Y23.582 E0.10653
G1 X54.675 Y23.705 E0.03787
G1 X56.762 Y24.163 E0.1066
G1 X57.488 Y24.363 E0.03757
G1 X59.512 Y25.042 E0.10651
G1 X60.225 Y25.326 E0.03829
G1 X62.16 Y26.221 E0.10636
G1 X62.822 Y26.572 E0.03738
G1 X64.652 Y27.67 E0.10647
G1 X65.285 Y28.098 E0.03812
G1 X66.986 Y29.39 E0.10657
G1 X67.561 Y29.877 E0.03759
G1 X69.114 Y31.345 E0.10662
G1 X69.638 Y31.897 E0.03797
G1 X71.019 Y33.521 E0.10636
G1 X71.477 Y34.124 E0.03778
G1 X72.676 Y35.89 E0.10649
G1 X73.069 Y36.542 E0.03798
G1 X74.07 Y38.429 E0.10657
G1 X74.386 Y39.111 E0.0375
G1 X75.179 Y41.095 E0.1066
G1 X75.423 Y41.816 E0.03797
G1 X75.995 Y43.871 E0.10642
G1 X76.158 Y44.613 E0.0379
G1 X76.504 Y46.718 E0.10643
G1 X76.586 Y47.469 E0.03769
G1 X76.703 Y49.601 E0.10653
G1 X76.704 Y50.352 E0.03747
G1 X76.592 Y52.484 E0.10651
G1 X76.511 Y53.244 E0.03813
G1 X76.167 Y55.352 E0.10656
G1 X76.004 Y56.095 E0.03795
G1 X75.434 Y58.151 E0.10644
G1 X75.193 Y58.866 E0.03764
G1 X74.405 Y60.849 E0.10646
G1 X74.087 Y61.538 E0.03786
G1 X73.088 Y63.426 E0.10657
G1 X72.697 Y64.077 E0.03789
G1 X71.499 Y65.846 E0.10659
G1 X71.042 Y66.449 E0.03775
G1 X69.663 Y68.075 E0.10637
G1 X69.139 Y68.628 E0.03801
G1 X67.588 Y70.098 E0.10661
G1 X67.014 Y70.586 E0.03759
G1 X65.315 Y71.88 E0.10655
G1 X64.686 Y72.307 E0.03793
G1 X62.86 Y73.407 E0.10635
G1 X62.196 Y73.76 E0.03752
G1 X60.26 Y74.659 E0.10649
G1 X59.545 Y74.944 E0.0384
G1 X57.522 Y75.625 E0.10649
G1 X56.8 Y75.826 E0.03739
G1 X54.714 Y76.287 E0.10658
G1 X53.967 Y76.41 E0.03777
G1 X51.844 Y76.643 E0.10655
G1 X51.087 Y76.685 E0.03782
G1 X48.955 Y76.687 E0.10637
G1 X48.197 Y76.647 E0.03787
G1 X46.074 Y76.418 E0.10653
G1 X45.325 Y76.295 E0.03787
G1 X43.238 Y75.837 E0.1066
G1 X42.512 Y75.637 E0.03757
G1 X40.488 Y74.958 E0.10651
G1 X39.775 Y74.674 E0.03829
G1 X37.838 Y73.778 E0.10648
G1 X37.175 Y73.427 E0.03743
G1 X35.347 Y72.33 E0.10636
G1 X34.715 Y71.902 E0.03808
G1 X33.014 Y70.61 E0.10657
G1 X32.439 Y70.123 E0.03759
G1 X30.886 Y68.655 E0.10662
G1 X30.362 Y68.103 E0.03797
G1 X28.981 Y66.479 E0.10636
G1 X28.522 Y65.875 E0.03785
G1 X27.322 Y64.107 E0.1066
G1 X26.93 Y63.456 E0.03791
G1 X25.929 Y61.569 E0.10657
G1 X25.613 Y60.886 E0.03755
G1 X24.821 Y58.904 E0.10648
G1 X24.577 Y58.184 E0.03793
G1 X24.005 Y56.129 E0.10642
G1 X23.842 Y55.386 E0.03795
G1 X23.496 Y53.279 E0.10653
G1 X23.414 Y52.529 E0.03764
G1 X23.297 Y50.399 E0.10643
G1 X23.296 Y49.648 E0.03747
G1 X23.408 Y47.516 E0.10651
G1 X23.489 Y46.756 E0.03813
G1 X23.833 Y44.648 E0.10656
G1 X23.996 Y43.905 E0.03795
G1 X24.566 Y41.849 E0.10644
G1 X24.807 Y41.134 E0.03764
G1 X25.595 Y39.151 E0.10646
G1 X25.913 Y38.462 E0.03786
G1 X26.912 Y36.574 E0.10657
G1 X27.303 Y35.923 E0.03789
G1 X28.501 Y34.154 E0.10659
G1 X28.958 Y33.551 E0.03775
G1 X30.337 Y31.925 E0.10637
G1 X30.861 Y31.372 E0.03801
G0 F3600 X31.136 Y31.663
G1 F1800 X32.687 Y30.193 E0.10661
G1 X33.228 Y29.732 E0.03546
G1 X34.927 Y28.438 E0.10655
G1 X35.52 Y28.036 E0.03574
G1 X37.346 Y26.936 E0.10635
G1 X37.972 Y26.603 E0.03538
G1 X39.908 Y25.704 E0.10649
G1 X40.582 Y25.435 E0.03621
G1 X42.605 Y24.754 E0.10649
G1 X43.287 Y24.564 E0.03532
G1 X45.373 Y24.103 E0.10658
G1 X46.077 Y23.987 E0.0356
G1 X48.2 Y23.754 E0.10655
G1 X48.914 Y23.715 E0.03567
G1 X51.046 Y23.713 E0.10637
G1 X51.76 Y23.751 E0.03567
G1 X53.883 Y23.98 E0.10653
G1 X54.59 Y24.095 E0.03574
G1 X56.677 Y24.553 E0.1066
G1 X57.361 Y24.743 E0.03542
G1 X59.385 Y25.422 E0.10651
G1 X60.057 Y25.689 E0.03608
G1 X61.992 Y26.584 E0.10636
G1 X62.617 Y26.915 E0.03528
G1 X64.447 Y28.013 E0.10647
G1 X65.043 Y28.416 E0.03589
G1 X66.744 Y29.708 E0.10657
G1 X67.286 Y30.168 E0.03547
G1 X68.839 Y31.636 E0.10662
G1 X69.333 Y32.156 E0.03578
G1 X70.714 Y33.78 E0.10636
G1 X71.146 Y34.349 E0.03564
G1 X72.345 Y36.115 E0.10649
G1 X72.715 Y36.729 E0.03576
G1 X73.716 Y38.616 E0.10657
G1 X74.015 Y39.259 E0.03538
G1 X74.808 Y41.243 E0.1066
G1 X75.037 Y41.923 E0.0358
G1 X75.609 Y43.978 E0.10642
G1 X75.764 Y44.678 E0.03577
G1 X76.11 Y46.783 E0.10643
G1 X76.187 Y47.491 E0.03553
G1 X76.304 Y49.623 E0.10653
G1 X76.305 Y50.331 E0.03532
G1 X76.193 Y52.463 E0.10651
G1 X76.116 Y53.18 E0.03598
G1 X75.772 Y55.288 E0.10656
G1 X75.618 Y55.988 E0.03576
G1 X75.048 Y58.044 E0.10644
G1 X74.821 Y58.718 E0.03548
G1 X74.033 Y60.701 E0.10646
G1 X73.734 Y61.351 E0.0357
G1 X72.735 Y63.239 E0.10657
G1 X72.366 Y63.853 E0.03574
G1 X71.168 Y65.622 E0.10659
G1 X70.737 Y66.19 E0.03557
G1 X69.358 Y67.816 E0.10637
G1 X68.864 Y68.337 E0.03582
G1 X67.313 Y69.807 E0.10661
G1 X66.772 Y70.268 E0.03546
G1 X65.073 Y71.562 E0.10655
G1 X64.48 Y71.964 E0.03574
G1 X62.654 Y73.064 E0.10635
G1 X62.028 Y73.397 E0.03538
G1 X60.092 Y74.296 E0.10649
G1 X59.418 Y74.565 E0.03621
G1 X57.395 Y75.246 E0.10649
G1 X56.713 Y75.436 E0.03532
G1 X54.627 Y75.897 E0.10658
G1 X53.923 Y76.013 E0.0356
G1 X51.8 Y76.246 E0.10655
G1 X51.086 Y76.285 E0.03567
G1 X48.954 Y76.287 E0.10637
G1 X48.24 Y76.249 E0.03567
G1 X46.117 Y76.02 E0.10653
G1 X45.41 Y75.905 E0.03574
G1 X43.323 Y75.447 E0.1066
G1 X42.639 Y75.257 E0.03542
G1 X40.615 Y74.578 E0.10651
G1 X39.943 Y74.311 E0.03608
G1 X38.006 Y73.415 E0.10648
G1 X37.381 Y73.084 E0.03528
G1 X35.553 Y71.987 E0.10636
G1 X34.957 Y71.584 E0.03589
G1 X33.256 Y70.292 E0.10657
G1 X32.714 Y69.832 E0.03547
G1 X31.161 Y68.364 E0.10662
G1 X30.667 Y67.844 E0.03578
G1 X29.286 Y66.22 E0.10636
G1 X28.853 Y65.651 E0.03567
G1 X27.653 Y63.883 E0.1066
G1 X27.284 Y63.269 E0.03574
G1 X26.283 Y61.382 E0.10657
G1 X25.984 Y60.738 E0.03542
G1 X25.192 Y58.756 E0.10648
G1 X24.963 Y58.077 E0.03575
G1 X24.391 Y56.022 E0.10642
G1 X24.236 Y55.321 E0.03582
G1 X23.89 Y53.214 E0.10653
G1 X23.813 Y52.507 E0.03548
G1 X23.696 Y50.377 E0.10643
G1 X23.695 Y49.669 E0.03532
G1 X23.807 Y47.537 E0.10651
G1 X23.884 Y46.82 E0.03598
G1 X24.228 Y44.712 E0.10656
G1 X24.382 Y44.012 E0.03576
G1 X24.952 Y41.956 E0.10644
G1 X25.179 Y41.282 E0.03548
G1 X25.967 Y39.299 E0.10646
G1 X26.266 Y38.649 E0.0357
G1 X27.265 Y36.761 E0.10657
G1 X27.634 Y36.147 E0.03574
G1 X28.832 Y34.378 E0.10659
G1 X29.263 Y33.81 E0.03557
G1 X30.642 Y32.184 E0.10637
G1 X31.136 Y31.663 E0.03582
G0 F3600 X31.411 Y31.953
G1 F1800 X32.962 Y30.483 E0.10661
G1 X33.47 Y30.051 E0.03327
G1 X35.169 Y28.757 E0.10655
G1 X35.727 Y28.378 E0.03365
G1 X37.553 Y27.278 E0.10635
G1 X38.141 Y26.966 E0.03321
G1 X40.077 Y26.067 E0.10649
G1 X40.71 Y25.814 E0.03401
G1 X42.733 Y25.133 E0.10649
G1 X43.373 Y24.955 E0.03314
G1 X45.459 Y24.494 E0.10658
G1 X46.121 Y24.385 E0.03347
G1 X48.244 Y24.152 E0.10655
G1 X48.914 Y24.115 E0.03348
G1 X51.046 Y24.113 E0.10637
G1 X51.717 Y24.149 E0.03352
G1 X53.84 Y24.378 E0.10653
G1 X54.504 Y24.486 E0.03356
G1 X56.591 Y24.944 E0.1066
G1 X57.234 Y25.122 E0.03329
G1 X59.258 Y25.801 E0.10651
G1 X59.889 Y26.052 E0.03388
G1 X61.824 Y26.947 E0.10636
G1 X62.411 Y27.258 E0.03314
G1 X64.241 Y28.356 E0.10647
G1 X64.801 Y28.735 E0.03374
G1 X66.502 Y30.027 E0.10657
G1 X67.011 Y30.458 E0.03328
G1 X68.564 Y31.926 E0.10662
G1 X69.028 Y32.416 E0.03367
G1 X70.409 Y34.04 E0.10636
G1 X70.815 Y34.573 E0.03343
G1 X72.014 Y36.339 E0.10649
G1 X72.362 Y36.917 E0.03366
G1 X73.363 Y38.804 E0.10657
G1 X73.643 Y39.408 E0.03321
G1 X74.436 Y41.392 E0.1066
G1 X74.652 Y42.03 E0.0336
G1 X75.224 Y44.085 E0.10642
G1 X75.369 Y44.742 E0.03357
G1 X75.715 Y46.847 E0.10643
G1 X75.788 Y47.513 E0.03343
G1 X75.905 Y49.645 E0.10653
G1 X75.905 Y50.31 E0.03318
G1 X75.793 Y52.442 E0.10651
G1 X75.721 Y53.116 E0.03382
G1 X75.377 Y55.224 E0.10656
G1 X75.233 Y55.881 E0.03356
G1 X74.663 Y57.937 E0.10644
G1 X74.45 Y58.571 E0.03337
G1 X73.662 Y60.554 E0.10646
G1 X73.38 Y61.164 E0.03353
G1 X72.381 Y63.052 E0.10657
G1 X72.035 Y63.629 E0.03357
G1 X70.837 Y65.398 E0.10659
G1 X70.431 Y65.931 E0.03343
G1 X69.052 Y67.557 E0.10637
G1 X68.589 Y68.047 E0.03363
G1 X67.038 Y69.517 E0.10661
G1 X66.53 Y69.949 E0.03327
G1 X64.831 Y71.243 E0.10655
G1 X64.273 Y71.622 E0.03365
G1 X62.447 Y72.722 E0.10635
G1 X61.859 Y73.034 E0.03321
G1 X59.923 Y73.933 E0.10649
G1 X59.29 Y74.186 E0.03401
G1 X57.267 Y74.867 E0.10649
G1 X56.627 Y75.045 E0.03314
G1 X54.541 Y75.506 E0.10658
G1 X53.879 Y75.615 E0.03347
G1 X51.756 Y75.848 E0.10655
G1 X51.086 Y75.885 E0.03348
G1 X48.954 Y75.887 E0.10637
G1 X48.283 Y75.851 E0.03352
G1 X46.16 Y75.622 E0.10653
G1 X45.496 Y75.514 E0.03356
G1 X43.409 Y75.056 E0.1066
G1 X42.766 Y74.878 E0.03329
G1 X40.742 Y74.199 E0.10651
G1 X40.111 Y73.948 E0.03388
G1 X38.174 Y73.052 E0.10648
G1 X37.587 Y72.741 E0.03314
G1 X35.759 Y71.644 E0.10636
G1 X35.199 Y71.265 E0.03374
G1 X33.498 Y69.973 E0.10657
G1 X32.989 Y69.542 E0.03328
G1 X31.436 Y68.074 E0.10662
G1 X30.972 Y67.584 E0.03367
G1 X29.591 Y65.96 E0.10636
G1 X29.184 Y65.426 E0.0335
G1 X27.984 Y63.658 E0.1066
G1 X27.637 Y63.081 E0.03359
G1 X26.636 Y61.194 E0.10657
G1 X26.356 Y60.59 E0.03321
G1 X25.564 Y58.608 E0.10648
G1 X25.348 Y57.97 E0.0336
